src/icons/svg/arrow-down.svg

<svg width="20" height="20" fill="none" xmlns="http://www.w3.org/2000/svg"><path d="M9.75 4.963a.508.508 0 0 0-.299.312c-.045.108-.051.581-.051 3.949v3.826l-1.775-1.774c-1.228-1.227-1.813-1.789-1.899-1.825a.56.56 0 0 0-.476.012.508.508 0 0 0-.299.312.553.553 0 0 0 .013.475c.078.166 4.673 4.763 4.813 4.815A.784.784 0 0 0 10 15.1a.784.784 0 0 0 .223-.035c.14-.052 4.735-4.649 4.813-4.815a.56.56 0 0 0 .001-.5.508.508 0 0 0-.312-.299.546.546 0 0 0-.451 0c-.086.036-.671.598-1.899 1.825L10.6 13.05l-.001-3.833c0-3.649-.003-3.84-.062-3.967a.508.508 0 0 0-.312-.299.557.557 0 0 0-.475.012" fill-rule="evenodd" fill="#000"/></svg>

<svg width="20" height="20" viewBox="0 0 20 20" fill="none" xmlns="http://www.w3.org/2000/svg"><path d="M9.750 4.963 C 9.591 5.036,9.520 5.110,9.451 5.275 C 9.406 5.383,9.400 5.856,9.400 9.224 L 9.400 13.050 7.625 11.276 C 6.397 10.049,5.812 9.487,5.726 9.451 C 5.563 9.384,5.414 9.388,5.250 9.463 C 5.091 9.536,5.020 9.610,4.951 9.775 C 4.884 9.937,4.888 10.087,4.964 10.250 C 5.042 10.416,9.637 15.013,9.777 15.065 C 9.829 15.084,9.929 15.100,10.000 15.100 C 10.071 15.100,10.171 15.084,10.223 15.065 C 10.363 15.013,14.958 10.416,15.036 10.250 C 15.115 10.082,15.115 9.920,15.037 9.750 C 14.964 9.591,14.890 9.520,14.725 9.451 C 14.569 9.386,14.431 9.386,14.274 9.451 C 14.188 9.487,13.603 10.049,12.375 11.276 L 10.600 13.050 10.599 9.217 C 10.599 5.568,10.596 5.377,10.537 5.250 C 10.464 5.091,10.390 5.020,10.225 4.951 C 10.064 4.884,9.914 4.888,9.750 4.963 " stroke="none" fill-rule="evenodd" fill="black"></path></svg>
